X:261
%%etbk:tnset id:79,pos:1,rep:3x,ant:
%%etbk:wsite http://www.thesession.org/tunes/display/317
%%etbk:pldat 2014-09-26T18:20,2014-05-20T16:26,2014-05-01T18:25,2014-02-16T16:00,2013-12-11T17:20,2013-11-19T15:34,2013-11-16T16:28,2013-05-01T15:36,2013-04-30T15:44
T: Paddy Whack
Z: Piano Box Version by Martin Fleischmann
H: Created 2013-02-19 /  Last Modified 2013-02-19
M: 6/8
L: 1/8
R: jig
K: Gmaj
D |: "G"!2!GA!4!B "C"!3!cc!5!e | "G"!4!d!2!B!1!G "D"!4!A!2!F!1!D | "G"!2!G!3!B!5!d !2!e!5!ag | "D"!3!f!1!dd def |
"G"!4!g!3!g!4!g !5!af!1!d | "C"!3!cc!5!e "G"!4!d!2!B!1!G | !2!GA!4!B "D"!3!ced |1 !2!B!1!G!2!F "G"!3!G2!1!D:|2 !3!B!1!G!2!F "G"!1!G3:|
|: "G"!1!G !2!(3B!3!^c!1!d !4!g2g | !2!e!2!d!3!c !2!Bc!1!A | !1!G !2!(3B!3!^c!1!d !2!e!5!ag | "D"!3!f!1!dd def |
"G"!4!g!3!g!4!g !5!af!1!d | "C"!3!cc!5!e "G"!4!d!2!B!1!G | !2!GA!4!B "D"!3!ced |1 !3!B!1!G!2!F "G"!1!G3:|2 !2!B!1!G!2!F "G"!3!G2!1!D:|


